svgs/sharp-solid/notebook.svg

<svg xmlns="http://www.w3.org/2000/svg" viewBox="0 0 512 512"><!--! Font Awesome Pro 6.6.0 by @fontawesome - https://fontawesome.com License - https://fontawesome.com/license (Commercial License) Copyright 2024 Fonticons, Inc. --><path d="M64 0l0 104-8 0-32 0L0 104l0 48 24 0 32 0 8 0 0 80-8 0-32 0L0 232l0 48 24 0 32 0 8 0 0 80-8 0-32 0L0 360l0 48 24 0 32 0 8 0 0 104 128 0L192 0 64 0zM480 0L224 0l0 512 256 0L480 0z"/></svg>

<svg xmlns="http://www.w3.org/2000/svg" viewBox="0 0 512 512"><!--! Font Awesome Pro 6.4.0 by @fontawesome - https://fontawesome.com License - https://fontawesome.com/license (Commercial License) Copyright 2023 Fonticons, Inc. --><path d="M64 0V104H56 24 0v48H24 56h8v80H56 24 0v48H24 56h8v80H56 24 0v48H24 56h8V512H192V0H64zM480 0H224V512H480V0z"/></svg>
